img/icons/insta.svg

<svg width="24" height="24" viewBox="0 0 24 24" fill="none" xmlns="http://www.w3.org/2000/svg">
<g clip-path="url(#clip0_31_332)">
<path d="M17.5034 0H6.49658C2.91431 0 0 2.91431 0 6.49658V17.5036C0 21.0856 2.91431 24 6.49658 24H17.5036C21.0856 24 24 21.0856 24 17.5036V6.49658C24 2.91431 21.0856 0 17.5034 0ZM12 18.5623C8.38147 18.5623 5.43768 15.6185 5.43768 12C5.43768 8.38142 8.38142 5.43768 12 5.43768C15.6185 5.43768 18.5623 8.38142 18.5623 12C18.5623 15.6185 15.6185 18.5623 12 18.5623ZM18.7192 6.9853C17.6499 6.9853 16.7801 6.11553 16.7801 5.04618C16.7801 3.97682 17.6499 3.10696 18.7192 3.10696C19.7886 3.10696 20.6584 3.97687 20.6584 5.04618C20.6584 6.11549 19.7885 6.9853 18.7192 6.9853Z" fill="#486113"/>
<path d="M11.9991 6.84625C9.15656 6.84625 6.84375 9.15883 6.84375 12.0016C6.84375 14.8441 9.15656 17.1569 11.9991 17.1569C14.8418 17.1569 17.1544 14.8441 17.1544 12.0016C17.1544 9.15883 14.8418 6.84625 11.9991 6.84625ZM18.7183 4.51562C18.425 4.51562 18.1862 4.75445 18.1862 5.04775C18.1862 5.34109 18.425 5.57987 18.7183 5.57987C19.0118 5.57987 19.2506 5.34128 19.2506 5.04775C19.2506 4.75427 19.0118 4.51562 18.7183 4.51562Z" fill="#486113"/>
</g>
<defs>
<clipPath id="clip0_31_332">
<rect width="24" height="24" fill="white"/>
</clipPath>
</defs>
</svg>

<svg width="24" height="24" viewBox="0 0 24 24" fill="none" xmlns="http://www.w3.org/2000/svg"><g clip-path="url(#a)" fill="#486113"><path d="M17.503 0H6.497A6.504 6.504 0 0 0 0 6.497v11.007A6.504 6.504 0 0 0 6.497 24h11.007A6.504 6.504 0 0 0 24 17.504V6.497A6.504 6.504 0 0 0 17.503 0ZM12 18.562A6.57 6.57 0 0 1 5.438 12 6.57 6.57 0 0 1 12 5.438 6.57 6.57 0 0 1 18.562 12 6.57 6.57 0 0 1 12 18.562Zm6.72-11.577c-1.07 0-1.94-.87-1.94-1.939 0-1.07.87-1.939 1.94-1.939a1.94 1.94 0 0 1 1.938 1.94c0 1.068-.87 1.938-1.939 1.938Z"/><path d="M12 6.846a5.161 5.161 0 0 0-5.156 5.156 5.161 5.161 0 0 0 5.155 5.155 5.161 5.161 0 0 0 5.155-5.155A5.161 5.161 0 0 0 12 6.846Zm6.718-2.33a.533.533 0 1 0 .002 1.065.533.533 0 0 0-.002-1.065Z"/></g><defs><clipPath id="a"><path fill="#fff" d="M0 0h24v24H0z"/></clipPath></defs></svg>
